X:1
T:The Old Woman Tossed Up
M:6/8
C:
S:Bacon (DK \& RKS from Benfield (RD))
N:
A:Bledington
O:English
R:Jig
%P:A/2.(AB)$^4$(A)
P:A.(AB)4(A)
%:
%:
K:G
I:speed 300
P:A
|: D   | GAB cBc  | efe d2 B/2A/2 | GAB c2 d | B>AG G2 :|\
P:B
|: d   | efg efg  | eag fed       | Bcd efa  | gfe  d2 \
B/2A/2 | GAB cBc  | efe d2 B/2A/2 | GAB c2 d | B>AG G2 :|
